X:1
T:Wohlfahrt Violin Studies - #1
T:Wohlfahrt Foundation Studies - No.3
T:Op 45 No 3
T:Franz Wohlfahrt
C:Franz Wohlfahrt
%%score 1 { 2 | 3 }
L:1/8
Q:1/4=70
M:2/4
K:G
V:1 treble nm="Violin"
V:2 treble nm="Piano"
V:3 bass 
V:1
"C""^Under Construction - 8/14/2017""^3." e/ d/ c/ B/ A/ B/ c/ A/ |"G" d/ c/ B/ A/ G/ A/ B/ G/ | %2
"D7" c/ B/ A/ G/ F/ D/ E/ F/ |"G" G/ B/ d/ g/ b/ a/ g/ f/ |"C" e/ d/ c/ B/ A/ B/ c/ A/ | %5
"G" d/ c/ B/ A/ G/ A/ B/ G/ |"D" F/ E/ D/ C/"G" B,/ D/ G/ B/ |"D" c/ d/ e/ f/"G" g/ B/ c/ d/ | %8
"C" e/ g/ f/ g/ a/ g/ f/ e/ |"G" d/ B/ G/ B/ d/ g/ f/ g/ |"C" e/ g/ f/ g/ a/ g/ f/ e/ | %11
"G" d/ B/ G/ B/ d/ B/ e/ d/ |"D" c/ A/ d/ c/"G" B/ G/ c/ B/ |"D" A/ G/ F/ E/ D/ d/ e/ d/ | %14
"D" c/ A/ d/ c/"G" B/ G/ c/ B/ |"D" A/ G/ F/ E/ D/ C/ B,/ A,/ |"G" G,/ A,/ B,/ C/ D/ E/ F/ G/ | %17
"D" A/ B/ c/ d/ e/ A/ B/ c/ | e/ d/ c/ B/ c/ d/ e/ f/ | a/ g/ d/ B/ G/ B/ c/ d/ | %20
"C" e/ d/ c/ B/ A/ B/ c/ A/ |"G" d/ c/ B/ A/ G/ A/ B/ G/ |"D" c/ B/ A/ G/ F/ D/ E/ F/ | %23
"G" G/ B/ d/ g/ b/ B/ c/ d/ |"C" e/ d/ c/ B/ A/ B/ c/ A/ |"G" d/ c/ B/ A/ G/ A/ B/ G/ | %26
"D" F/ E/ D/ C/"G" B,/ D/ G/ B/ |"D" c/ d/ e/ f/"G" g/ b/ a/ g/ |"D" f/ e/ d/ c/"G" B/ G/ F/ E/ | %29
"D" D/ C/ B,/ A,/"G" G,2 |] %30
V:2
"C" e/d/c/B/ A/B/c/A/ |"G" d/c/B/A/ G/A/B/G/ |"D7" c/B/A/G/ F/D/E/F/ |"G" G/B/d/g/ b/a/g/f/ | %4
"C" e/d/c/B/ A/B/c/A/ |"G" d/c/B/A/ G/A/B/G/ |"D" F/E/D/C/"G" B,/D/G/B/ |"D" c/d/e/f/"G" g/B/c/d/ | %8
"C" e/g/f/g/ a/g/f/e/ |"G" d/B/G/B/ d/g/f/g/ |"C" e/g/f/g/ a/g/f/e/ |"G" d/B/G/B/ d/B/e/d/ | %12
"D" c/A/d/c/"G" B/G/c/B/ |"D" A/G/F/E/ D/d/e/d/ |"D" c/A/d/c/"G" B/G/c/B/ | %15
"D" A/G/F/E/ D/C/B,/A,/ |"G" G,/A,/B,/C/ D/E/F/G/ |"D" A/B/c/d/ e/A/B/c/ | e/d/c/B/ c/d/e/f/ | %19
 a/g/d/B/ G/B/c/d/ |"C" e/d/c/B/ A/B/c/A/ |"G" d/c/B/A/ G/A/B/G/ |"D" c/B/A/G/ F/D/E/F/ | %23
"G" G/B/d/g/ b/B/c/d/ |"C" e/d/c/B/ A/B/c/A/ |"G" d/c/B/A/ G/A/B/G/ |"D" F/E/D/C/"G" B,/D/G/B/ | %27
"D" c/d/e/f/"G" g/b/a/g/ |"D" f/e/d/c/"G" B/G/F/E/ |"D" D/C/B,/A,/"G" G,2 |] %30
V:3
 C,[E,G,] C,[E,G,] | G,,[B,,D,] G,,[B,,D,] | D,,[F,,A,,] D,,[F,,A,,] | G,,[B,,D,] G,,[B,,D,] | %4
 C,[E,G,] C,[E,G,] | G,,[B,,D,] G,,[B,,D,] | D,,[F,,A,,] G,,[B,,D,] | D,,[F,,A,,] G,,[B,,D,] | %8
 C,[E,G,] C,[E,G,] | G,,[B,,D,] G,,[B,,D,] | C,[E,G,] C,[E,G,] | G,,[B,,D,] G,,[B,,D,] | %12
 D,,[F,,A,,] G,,[B,,D,] | D,,[F,,A,,] D,,[F,,A,,] | D,,[F,,A,,] G,,[B,,D,] | %15
 D,,[F,,A,,] D,,[F,,A,,] | G,,[B,,D,] G,,[B,,D,] | D,,[F,,A,,] D,,[F,,A,,] | C,[E,G,] C,[E,G,] | %19
 G,,[B,,D,] G,,[B,,D,] | C,[E,G,] C,[E,G,] | G,,[B,,D,] G,,[B,,D,] | D,,[F,,A,,] D,,[F,,A,,] | %23
 G,,[B,,D,] G,,[B,,D,] | C,[E,G,] C,[E,G,] | G,,[B,,D,] G,,[B,,D,] | D,,[F,,A,,] G,,[B,,D,] | %27
 D,,[F,,A,,] G,,[B,,D,] | D,,[F,,A,,] G,,[B,,D,] | D,,[F,,A,,] G,,[B,,D,] |] %30

